svg/water_thermometer.svg

<svg xmlns="http://www.w3.org/2000/svg" viewBox="0 0 24 24"><path d="M19 5c-1.11 0-2 .89-2 2v6.76c-.64.57-1 1.39-1 2.24 0 1.66 1.34 3 3 3s3-1.34 3-3c0-.85-.36-1.67-1-2.23V7c0-1.11-.89-2-2-2m0 1c.55 0 1 .45 1 1v1h-2V7c0-.55.45-1 1-1M8 20c-3.31 0-6-2.69-6-6C2 10 8 3.25 8 3.25S14 10 14 14c0 3.31-2.69 6-6 6"/></svg>

<svg xmlns="http://www.w3.org/2000/svg" id="mdi-water-thermometer" viewBox="0 0 24 24"><path d="M19 5C17.89 5 17 5.89 17 7V13.76C16.36 14.33 16 15.15 16 16C16 17.66 17.34 19 19 19S22 17.66 22 16C22 15.15 21.64 14.33 21 13.77V7C21 5.89 20.11 5 19 5M19 6C19.55 6 20 6.45 20 7V8H18V7C18 6.45 18.45 6 19 6M8 20C4.69 20 2 17.31 2 14C2 10 8 3.25 8 3.25S14 10 14 14C14 17.31 11.31 20 8 20Z" /></svg>
